X: 4027
T: Bladet
R: waltz
M: 3/4
K: Gmajor
D2|:B2 (dc) BA|G2 (DG) DG|A2 (DA) DA|B2 (BA) GA|
B2 (dc) BA|G2 (DG) DG|A2 (DF) AF|1 G4 D2:|2 G4 (A-G)||
K:Dmaj
|:(FE) FA d2|(GF) GB e2|(ce) (ag) fe|(fa) (fd) AG|
(FE) (FA) d2|(GF) GB e2|(ce) (ag) fe|1 d4 (AG):|2 d2 (B2-d2)||
K:Gmaj
|:e6|d4 B2|c3 B A2|B2 d2 g2|
a3 g (eA)|G2 B2 AG|F2 (Ac) AF|1 G2 (B2d2):|2 G4 z2||

